images/btc-one.svg

<svg width="118" height="84" viewBox="0 0 118 84" fill="none" xmlns="http://www.w3.org/2000/svg">
<path d="M100.72 73.3457C77.8852 86.5657 40.8629 86.5657 18.0283 73.3457C-4.80631 60.1256 -4.80631 38.6917 18.0283 25.4717C40.8629 12.2516 77.8852 12.2516 100.72 25.4717C123.554 38.6917 123.554 60.1256 100.72 73.3457Z" fill="url(#paint0_linear_1812_47302)"/>
<path d="M98.5453 66.0355C76.9125 78.5241 41.8388 78.5241 20.206 66.0355C9.99306 60.1396 4.60169 52.5143 4.03188 44.7924L3.98438 34.0213C4.12961 42.0937 9.5368 50.1404 20.206 56.2997C41.8388 68.7884 76.9125 68.7884 98.5453 56.2997C109.17 50.1661 114.576 42.1608 114.765 34.1223V33.252C114.772 33.542 114.772 33.8322 114.765 34.1223V43.8578C114.577 51.8964 109.17 59.9018 98.5453 66.0355Z" fill="#79EFBD" stroke="#0D0B33" stroke-width="0.59185"/>
<path d="M98.5444 55.7968C76.9116 68.2854 41.8379 68.2854 20.2051 55.7968C-1.42773 43.3082 -1.42773 23.0602 20.2051 10.5715C41.8379 -1.91708 76.9116 -1.91708 98.5444 10.5715C120.177 23.0602 120.177 43.3082 98.5444 55.7968Z" fill="#F7F6FF" stroke="#0D0B33" stroke-width="0.59185"/>
<path d="M76.9259 40.726C77.2698 39.1724 76.5413 37.5482 74.7395 35.854C79.2937 36.7069 83.2299 35.9648 86.5499 33.628C87.7642 32.7866 88.5527 31.9051 88.9165 30.982C89.28 30.0586 89.2352 29.1216 88.779 28.169C88.3244 27.2165 87.635 26.2931 86.7147 25.3996C85.794 24.506 84.6047 23.5564 83.1473 22.5516L90.7977 18.135L86.1229 15.4362L78.685 19.7301C77.8755 19.2628 76.6208 18.5618 74.9208 17.6272L82.4194 13.2982L77.744 10.5991L70.0935 15.0157C69.4051 14.6417 68.4134 14.0811 67.1181 13.3333L60.7128 9.6002L55.7339 12.4745L59.1035 14.4198C60.6417 15.3078 60.854 16.2251 59.7411 17.1714L51.0279 22.2015C51.2306 22.3185 51.3819 22.4179 51.4832 22.4997L50.9973 22.2191L38.7936 29.2644C37.5999 29.7667 36.4966 29.7261 35.4845 29.1418L32.1151 27.1967L25.618 29.8607L31.6899 33.3659C32.0745 33.588 32.6256 33.912 33.3454 34.3381C34.0637 34.7646 34.6048 35.0828 34.9692 35.2932L27.2278 39.7623L31.904 42.4619L39.5544 38.0453C40.3834 38.5479 41.6081 39.2663 43.2272 40.201L35.6075 44.5999L40.2824 47.2987L48.0238 42.8296C49.7646 43.7413 51.3879 44.5041 52.8959 45.1167C54.4045 45.7297 55.9829 46.2385 57.6325 46.6412C59.2813 47.0443 60.8551 47.2689 62.3527 47.3155C63.8501 47.3628 65.4033 47.2191 67.0134 46.8865C68.6218 46.5529 70.216 46.0128 71.7945 45.2646C74.8713 43.7935 76.5814 42.2801 76.9259 40.726ZM69.5479 20.8339C69.6897 20.9157 70.0945 21.1435 70.7625 21.5174C71.431 21.8913 71.9872 22.2009 72.4325 22.4461C72.8778 22.6916 73.4394 23.0451 74.1177 23.5068C74.7957 23.9683 75.3368 24.3743 75.7416 24.7247C76.1464 25.075 76.5365 25.493 76.9103 25.9776C77.2855 26.4627 77.4874 26.9066 77.5174 27.3094C77.5481 27.7126 77.4315 28.1363 77.1679 28.58C76.9051 29.0242 76.4397 29.4389 75.7719 29.8244C75.2052 30.1516 74.598 30.3972 73.9503 30.561C73.3033 30.7249 72.6397 30.7917 71.9621 30.7627C71.2844 30.7338 70.6357 30.6751 70.0186 30.5873C69.4018 30.4998 68.7232 30.3243 67.9848 30.0615C67.2464 29.7988 66.6139 29.5622 66.0881 29.352C65.5617 29.1417 64.9495 28.8526 64.2513 28.4845C63.553 28.1162 63.0262 27.8359 62.6723 27.6432C62.3181 27.4502 61.8477 27.1786 61.2605 26.8281C60.6731 26.4774 60.3297 26.2731 60.2283 26.2145L69.5484 20.834L69.548 20.8338L69.5479 20.8339ZM61.6403 40.139C60.9817 40.2966 60.3292 40.3875 59.6815 40.4111C59.0342 40.434 58.3303 40.3785 57.572 40.2441C56.813 40.1102 56.1197 39.9549 55.4926 39.7799C54.8643 39.6048 54.1616 39.3618 53.3826 39.0528C52.6024 38.7427 51.9405 38.4593 51.3932 38.2022C50.8468 37.9453 50.2148 37.627 49.4958 37.2472C48.7781 36.8673 48.226 36.5664 47.8416 36.3445C47.457 36.1225 46.9767 35.8388 46.3997 35.4942C45.8219 35.1497 45.4529 34.9308 45.2908 34.8373L55.5525 28.9132C55.7142 29.0066 56.2048 29.2784 57.0251 29.7281C57.8452 30.178 58.5071 30.5492 59.0131 30.8413C59.519 31.1334 60.1877 31.5539 61.0174 32.1035C61.8471 32.6521 62.5053 33.1368 62.9915 33.5577C63.4769 33.9783 63.9523 34.4686 64.418 35.0299C64.8834 35.5906 65.157 36.1048 65.2382 36.5722C65.3185 37.04 65.2279 37.5243 64.9646 38.0268C64.7022 38.5295 64.2062 38.991 63.4774 39.4118C62.91 39.7392 62.2987 39.9813 61.6403 40.139Z" fill="#0D0B33"/>
<path d="M3.98047 37.0977C7.14005 45.0575 9.58191 48.7156 16.2903 52.4849V63.2561C10.165 58.9207 6.88559 56.2604 3.98047 47.0994V37.0977Z" fill="#0D0B33"/>
<path d="M20.9062 56.334L25.5224 58.6421V69.4132L20.9062 67.1051V56.334Z" fill="#0D0B33"/>
<defs>
<linearGradient id="paint0_linear_1812_47302" x1="-28.0917" y1="22.7698" x2="-22.0818" y2="75.7794" gradientUnits="userSpaceOnUse">
<stop stop-color="white"/>
<stop offset="1" stop-color="white" stop-opacity="0"/>
</linearGradient>
</defs>
</svg>

<svg xmlns="http://www.w3.org/2000/svg" width="118" height="84" fill="none"><path fill="url(#a)" d="M100.72 73.346c-22.835 13.22-59.857 13.22-82.692 0-22.834-13.22-22.834-34.654 0-47.874 22.835-13.22 59.857-13.22 82.692 0 22.834 13.22 22.834 34.654 0 47.874Z"/><path fill="#79EFBD" stroke="#0D0B33" stroke-width=".592" d="M98.545 66.035c-21.633 12.49-56.706 12.49-78.339 0C9.993 60.14 4.602 52.516 4.032 44.793l-.048-10.77C4.13 42.093 9.537 50.14 20.206 56.3c21.633 12.488 56.706 12.488 78.34 0 10.624-6.134 16.03-14.14 16.219-22.178v-.87c.007.29.007.58 0 .87v9.736c-.188 8.038-5.595 16.044-16.22 22.178Z"/><path fill="#F7F6FF" stroke="#0D0B33" stroke-width=".592" d="M98.544 55.797c-21.632 12.488-56.706 12.488-78.339 0-21.633-12.489-21.633-32.737 0-45.225 21.633-12.49 56.707-12.49 78.34 0 21.632 12.488 21.632 32.736 0 45.225Z"/><path fill="#0D0B33" d="M76.926 40.726c.344-1.554-.385-3.178-2.186-4.872 4.554.853 8.49.11 11.81-2.226 1.214-.841 2.003-1.723 2.367-2.646.363-.923.318-1.86-.138-2.813-.455-.953-1.144-1.876-2.064-2.77-.921-.893-2.11-1.843-3.568-2.847l7.65-4.417-4.674-2.699-7.438 4.294c-.81-.467-2.064-1.168-3.764-2.103l7.498-4.329-4.675-2.699-7.65 4.417c-.689-.374-1.68-.935-2.976-1.683L60.713 9.6l-4.98 2.875 3.37 1.945c1.539.888 1.751 1.805.638 2.751l-8.713 5.03c.203.117.354.217.455.299l-.486-.28-12.203 7.044c-1.194.503-2.297.462-3.31-.122l-3.369-1.945-6.497 2.664 6.072 3.505c.384.222.936.546 1.655.972.719.427 1.26.745 1.624.955l-7.741 4.47 4.676 2.699 7.65-4.417a216 216 0 0 0 3.673 2.156l-7.62 4.399 4.675 2.699 7.742-4.47a56.104 56.104 0 0 0 4.872 2.288 33.952 33.952 0 0 0 4.736 1.524c1.65.403 3.223.628 4.72.675 1.498.047 3.051-.097 4.661-.43a21.194 21.194 0 0 0 4.781-1.621c3.077-1.471 4.787-2.985 5.132-4.539Zm-7.378-19.892a301.183 301.183 0 0 0 2.885 1.612c.445.246 1.006.6 1.685 1.06.678.462 1.219.868 1.624 1.219.404.35.794.768 1.168 1.253.376.485.577.929.607 1.331.031.404-.085.827-.35 1.271-.262.444-.727.859-1.395 1.244a7.11 7.11 0 0 1-1.822.737c-.647.164-1.31.23-1.988.202a19.803 19.803 0 0 1-1.943-.176 10.552 10.552 0 0 1-2.034-.526c-.739-.262-1.371-.499-1.897-.709-.526-.21-1.138-.5-1.837-.867-.698-.369-1.225-.65-1.579-.842a43.779 43.779 0 0 1-1.411-.815c-.588-.35-.931-.555-1.033-.613l9.32-5.381ZM61.64 40.139a9.958 9.958 0 0 1-1.959.272 10.09 10.09 0 0 1-2.109-.167 21.951 21.951 0 0 1-2.08-.464 21.354 21.354 0 0 1-2.11-.727 36.2 36.2 0 0 1-1.989-.85 46.488 46.488 0 0 1-1.897-.956c-.718-.38-1.27-.68-1.654-.903-.385-.221-.865-.505-1.442-.85-.578-.344-.947-.563-1.11-.657l10.263-5.924c.161.094.652.365 1.472.815.82.45 1.482.821 1.988 1.113.506.292 1.175.713 2.004 1.262.83.55 1.488 1.034 1.974 1.455.486.42.961.91 1.427 1.472.465.56.739 1.075.82 1.542.08.468-.01.952-.273 1.455-.263.502-.759.964-1.488 1.385a6.838 6.838 0 0 1-1.837.727ZM3.98 37.098c3.16 7.96 5.602 11.618 12.31 15.387v10.771C10.165 58.921 6.886 56.26 3.98 47.1V37.098ZM20.906 56.334l4.616 2.308v10.771l-4.616-2.308V56.334Z"/><defs><linearGradient id="a" x1="-28.092" x2="-22.082" y1="22.77" y2="75.779" gradientUnits="userSpaceOnUse"><stop stop-color="#fff"/><stop offset="1" stop-color="#fff" stop-opacity="0"/></linearGradient></defs></svg>
